src/pos-icons/egg-outline.svg

<svg height="24" viewBox="0 0 24 24" width="24" xmlns="http://www.w3.org/2000/svg"><path d="m12 4c2.32 0 5.5 6.7 5.5 10.5 0 3.03-2.47 5.5-5.5 5.5s-5.5-2.47-5.5-5.5c0-3.8 3.18-10.5 5.5-10.5m0-2c-4.14 0-7.5 8.36-7.5 12.5s3.36 7.5 7.5 7.5 7.5-3.36 7.5-7.5-3.36-12.5-7.5-12.5z"/></svg>

<?xml version="1.0" encoding="UTF-8"?><!DOCTYPE svg PUBLIC "-//W3C//DTD SVG 1.1//EN" "http://www.w3.org/Graphics/SVG/1.1/DTD/svg11.dtd"><svg xmlns="http://www.w3.org/2000/svg" xmlns:xlink="http://www.w3.org/1999/xlink" version="1.1" id="mdi-egg-outline" width="24" height="24" viewBox="0 0 24 24"><path d="M12 4C14.32 4 17.5 10.7 17.5 14.5C17.5 17.53 15.03 20 12 20S6.5 17.53 6.5 14.5C6.5 10.7 9.68 4 12 4M12 2C7.86 2 4.5 10.36 4.5 14.5C4.5 18.64 7.86 22 12 22S19.5 18.64 19.5 14.5C19.5 10.36 16.14 2 12 2Z" /></svg>
